X: 142
T: Ciebie chwalę, Boże mój, imieniowi Twemu
C: Mikołaj Gomółka
%%abc-version 2.0
%%abcx-abcm2ps-target-version 5.9.1 (29 Sep 2008)
%%abc-creator hum2abc beta
%%abcx-conversion-date 2021/10/04 07:59:09
%%abc-edited-by Anna Matuszewska
%%abcx-initial-encoding-date 2020-02-25
%%humdrum-veritas 3762728280
%%humdrum-veritas-data 61801374
%%linebreak <none>
%%barnumbers 0
L: 1/4
M: C|
N: Derived from pl-wn--sd-xvi-qu-273--145_gomolka-mikolaj--ciebie-chwale-boze-moj-imieniowi-twemu.krn
%%staves [1 2 3 4]
V: 1 clef=treble
V: 2
V: 3 clef=alto
V: 4
K: F
[V:1] c2>B2A2G2 | 
[V:2] C2C2>D2E2 | 
[V:3] F2F2F2E2 | 
[V:4] F,2>G,2A,B,C2 [|] 
[V:1] A2_B2c2d3 | 
[V:2] FDGFE2A2 | 
[V:3] D2D2C2F2 | 
[V:4] F,2G,2A,2D,E, [|] 
[V:1] cc2c2B2 | 
[V:2] A2A2A2GF | 
[V:3] F2E2D2D2 | 
[V:4] F,G,A,2F,2G,2 [|] 
[V:1] c4A4 | 
[V:2] E4F4 | 
[V:3] C4C4 | 
[V:4] C,4F,4 [|] 
[V:1] A2B2cBAG | 
[V:2] F2D2C2F3 | 
[V:3] C2B,2A,2A,2 | 
[V:4] F,2G,2A,G,F,E, [|] 
[V:1] F2B2A2G2 | 
[V:2] EDEFF2E | 
[V:3] D4C2B,2 | 
[V:4] D,C,B,,2F,2G,2 [|] 
[V:1] A2e2d2d2 | 
[V:2] F2G2DEFG | 
[V:3] A,2G,A,B,2B,2 | 
[V:4] F,2C,2B,,C,D,E, [|] 
[V:1] c4A2A4 | 
[V:2] A4C4 | 
[V:3] A,4F,4 | 
[V:4] F,4F,3E, [|] 
[V:1] GFE2A2 | 
[V:2] D2D2E2F2 | 
[V:3] A,2=B,2C2C2 | 
[V:4] D,C,D,2C,2F,2 [|] 
[V:1] B4A3B | 
[V:2] F4F3G | 
[V:3] D4C2D2 | 
[V:4] B,,C,D,E,F,2D,2 [|] 
[V:1] c2c2c3B | 
[V:2] A2A2G4 | 
[V:3] E2F2F2E2 | 
[V:4] A,2F,2C2C,2 [|] 
[V:1] AGF2A3G | 
[V:2] A2C2>B,2A,2 | 
[V:3] F4F4 | 
[V:4] F,4F,3E, [|] 
[V:1] ABc2F2F2 | 
[V:2] D2>E2F2F4 | 
[V:3] F2>E2D2C2 | 
[V:4] D,2C,2B,,2A,,2 [|] 
[V:1] G4A2A2 | 
[V:2] E2F3E | 
[V:3] B,4A,2C2 | 
[V:4] G,,4F,,2F,,2 [|] 
[V:1] G2F4E2 | 
[V:2] D2C2B,2A,G, | 
[V:3] B,2A,2G,2G,2 | 
[V:4] G,,2A,,2B,,2C,2 [|] 
[V:1] F8 | 
[V:2] A,8 | 
[V:3] F,8 | 
[V:4] F,,8 | 


